!! J.S. Bach "Preludio" from Partita No. 3, for solo violin, BWV 1006.
!! From 'Neue Ausgabe Saemtlicher Werke' Serie VI: Kammermusikwerke,
!! Band 1 ('Werke fuer Violine') Baerenreiter Kassel (Basel) 1958; pp.54-57
!! NOTE:  This 'monophonic' work has been encoded in a two-voice format.
!!        The 'melody' line is encoded in the first column throughout.
!! NOTE:  Double-stops occur in both voices in bar 134.
**kern	**kern
*M3/4	*M3/4
=1	=1
8r	2.r
16eee	.
16ddd#	.
8eee	.
8bb	.
8gg#	.
8bb	.
=2	=2
{16ee	2.r
16ff#	.
16ee	.
16dd#	.
8ee}	.
8b	.
8g#	.
8b	.
=3	=3
16e	2.r
16b	.
16f#	.
16b	.
16g#	.
16b	.
16a	.
16b	.
16g#	.
16b	.
16f#	.
16b	.
=4	=4
16e	2.r
16ee	.
16dd#	.
16cc#	.
16b	.
16ee	.
16dd#	.
16cc#	.
16b	.
16a	.
16g#	.
16f#	.
=5	=5
16e	2.r
16b	.
16f#	.
16b	.
16g#	.
16b	.
16a	.
16b	.
16g#	.
16b	.
16f#	.
16b	.
=6	=6
16e	2.r
16ee	.
16dd#	.
16cc#	.
16b	.
16ee	.
16dd#	.
16cc#	.
16b	.
16a	.
16g#	.
16f#	.
=7	=7
16e	2.r
16f#	.
16g#	.
16a	.
16b	.
16cc#	.
16dd#	.
16ee	.
16ff#	.
16gg#	.
16aa	.
16ff#	.
=8	=8
16gg#	2.r
16bb	.
16ee	.
16ff#	.
16gg#	.
16aa	.
16bb	.
16ccc#	.
16ddd#	.
16eee	.
16ccc#	.
16ddd#	.
=9	=9
16eee	2.r
16bb	.
16aa	.
16bb	.
16gg#	.
16bb	.
16aa	.
16bb	.
16gg#	.
16bb	.
16ff#	.
16bb	.
=10	=10
16ee	2.r
16eee	.
16ddd#	.
16ccc#	.
16bb	.
16ee	.
16ccc#	.
16ee	.
16bb	.
16ee	.
16aa	.
16ee	.
=11	=11
16gg#	2.r
16bb	.
16ff#	.
16bb	.
16gg#	.
16bb	.
16aa	.
16bb	.
16gg#	.
16bb	.
16ff#	.
16bb	.
=12	=12
16ee	2.r
16eee	.
16ddd#	.
16ccc#	.
16bb	.
16ee	.
16ccc#	.
16ee	.
16bb	.
16ee	.
16aa	.
16ee	.
=13	=13
16gg#	4r
16ee	.
16ee	.
16ee	.
16dd#	16r
16r	16ee
16ee	16r
16r	16ee
16ff#	16r
16r	16ee
16dd#	16r
16r	16ee
=14	=14
16ee	16r
16r	16ee
16gg#	16r
16r	16ee
16ff#	16r
16r	16ee
16gg#	16r
16r	16ee
16aa	16r
16r	16ee
16ff#	16r
16r	16ee
=15	=15
16gg#	16r
16r	16ee
16ee	16r
16r	16ee
16dd#	16r
16r	16ee
16ee	16r
16r	16ee
16ff#	16r
16r	16ee
16dd#	16r
16r	16ee
=16	=16
16ee	16r
16r	16ee
16gg#	16r
16r	16ee
16ff#	16r
16r	16ee
16gg#	16r
16r	16ee
16aa	16r
16r	16ee
16ff#	16r
16r	16ee
=17	=17
16gg#	16r
16r	16ee
16gg#	16r
16ee	16r
16gg#	16r
16r	16ee
16gg#	16r
16ee	16r
16gg#	16r
16r	16ee
16gg#	16r
16ee	16r
=18	=18
16gg#	16r
16r	16ee
16gg#	16r
16dd#	16r
16gg#	16r
16r	16ee
16gg#	16r
16dd#	16r
16gg#	16r
16r	16ee
16gg#	16r
16dd#	16r
=19	=19
16gg#	16r
16r	16ee
16gg#	16r
16ddn	16r
16gg#	16r
16r	16ee
16gg#	16r
16dd	16r
16gg#	16r
16r	16ee
16gg#	16r
16dd	16r
=20	=20
16aa	16r
16r	16ee
16aa	16r
16cc#	16r
16aa	16r
16r	16ee
16aa	16r
16cc#	16r
16aa	16r
16r	16ee
16aa	16r
16cc#	16r
=21	=21
16aa	16r
16r	16ee
16aa	16r
16b	16r
16aa	16r
16r	16ee
16aa	16r
16b	16r
16aa	16r
16r	16ee
16aa	16r
16b	16r
=22	=22
16gg#	16r
16r	16ee
16gg#	16r
16b	16r
16gg#	16r
16r	16ee
16gg#	16r
16b	16r
16gg#	16r
16r	16ee
16gg#	16r
16b	16r
=23	=23
16gg#	16r
16r	16ee
16gg#	16r
16a	16r
16gg#	16r
16r	16ee
16gg#	16r
16a	16r
16gg#	16r
16r	16e
16gg#	16r
16a	16r
=24	=24
16ff#	16r
16r	16ee
16ff#	16r
16a	16r
16ff#	16r
16r	16ee
16ff#	16r
16a	16r
16ff#	16r
16r	16ee
16ff#	16r
16a	16r
=25	=25
16ff#	16r
16r	16ee
16ff#	16r
16g#	16r
16ff#	16r
16r	16ee
16ff#	16r
16g#	16r
16ff#	16r
16r	16ee
16ff#	16r
16g#	16r
=26	=26
16ee	16r
16r	16ee
16ee	16r
16g#	16r
16ee	16r
16r	16ee
16ee	16r
16g#	16r
16ee	16r
16r	16ee
16ee	16r
16g#	16r
=27	=27
16ee	16r
16r	16ee
16ee	16r
16f#	16r
16ee	16r
16r	16ee
16ee	16r
16f#	16r
16ee	16r
16r	16ee
16ee	16r
16f#	16r
=28	=28
16dd#	16r
16r	16ee
16dd#	16r
16f#	16r
16dd#	16r
16r	16ee
16dd#	16r
16f#	16r
16dd#	16r
16r	16ee
16dd#	16r
16f#	16r
=29	=29
16e	2.r
16f#	.
16e	.
16f#	.
16g#	.
16b	.
16e	.
16f#	.
16g#	.
16b	.
16e	.
16f#	.
=30	=30
16g#	2.r
16a	.
16g#	.
16a	.
16b	.
16ee	.
16g#	.
16a	.
16b	.
16ee	.
16g#	.
16a	.
=31	=31
16b	2.r
16cc#	.
16b	.
16cc#	.
16ddn	.
16gg#	.
16b	.
16cc#	.
16dd	.
16gg#	.
16b	.
16cc#	.
=32	=32
16ddn	2.r
16bb	.
16gg#	.
16ee	.
16dd	.
16b	.
16g#	.
16e	.
16dn	.
16c#	.
16d	.
16B	.
=33	=33
16c#	2.r
16d#	.
16c#	.
16d#	.
16e#	.
16g#	.
16c#	.
16d#	.
16e#	.
16g#	.
16c#	.
16d#	.
=34	=34
16e#	2.r
16f#	.
16e#	.
16f#	.
16g#	.
16cc#	.
16e#	.
16f#	.
16g#	.
16cc#	.
16e#	.
16f#	.
=35	=35
16g#	2.r
16a	.
16g#	.
16a	.
16b	.
16ee#	.
16g#	.
16a	.
16b	.
16ee#	.
16g#	.
16a	.
=36	=36
16b	2.r
16gg#	.
16ee#	.
16cc#	.
16bb	.
16gg#	.
16aa	.
16ff#	.
16ee#	.
16gg#	.
16cc#	.
16b	.
=37	=37
16a	2.r
16cc#	.
16a	.
16f#	.
16ff#	.
16dd#	.
16een	.
16cc#	.
16b#	.
16dd#	.
16g#	.
16f#	.
=38	=38
16e	2.r
16g#	.
16e	.
16c#	.
16e	.
16g#	.
16cc#	.
16g#	.
16ee	.
16cc#	.
16gg#	.
16cc#	.
=39	=39
16b#	2.r
16dd#	.
16b#	.
16g#	.
{16gg#	.
16ff##}	.
{16gg#	.
16ff##}	.
16gg#	.
16dd#	.
16ee	.
16cc#	.
=40	=40
16b#	2.r
16dd#	.
16b#	.
16g#	.
{16ff#	.
16ee#}	.
{16ff#	.
16ee#}	.
16ff#	.
16dd#	.
16een	.
16cc#	.
=41	=41
16b#	2.r
16dd#	.
16b#	.
16g#	.
{16a	.
16g#}	.
{16a	.
16g#}	.
16a	.
16d#	.
16e	.
16c#	.
=42	=42
16B#	2.r
16f#	.
16c#	.
16f#	.
16d#	.
16f#	.
16c#	.
16f#	.
16B#	.
16f#	.
16d#	.
16f#	.
=43	=43
16G#	2.r
16f#	.
16dd#	.
16f#	.
16b#	.
16f#	.
16dd#	.
16f#	.
16b#	.
16f#	.
16dd#	.
16f#	.
=44	=44
16G#	2.r
16e	.
16cc#	.
16e	.
16ee	.
16e	.
16cc#	.
16e	.
16ee	.
16e	.
16cc#	.
16e	.
=45	=45
16G#	2.r
16f#	.
16dd#	.
16f#	.
16b#	.
16f#	.
16dd#	.
16f#	.
16b#	.
16f#	.
16dd#	.
16f#	.
=46	=46
16G#	2.r
16e	.
16cc#	.
16e	.
16ee	.
16e	.
16cc#	.
16e	.
16ee	.
16e	.
16cc#	.
16e	.
=47	=47
16G#	2.r
16f##	.
16cc#	.
16f##	.
16ee	.
16f##	.
16cc#	.
16f##	.
16ee	.
16f##	.
16cc#	.
16f##	.
=48	=48
16G#	2.r
16f##	.
16cc#	.
16f##	.
16ee	.
16f##	.
16cc#	.
16f##	.
16ee	.
16f##	.
16cc#	.
16f#	.
=49	=49
16G#	2.r
16g#	.
16cc#	.
16g#	.
16dd#	.
16g#	.
16cc#	.
16g#	.
16dd#	.
16g#	.
16cc#	.
16g#	.
=50	=50
16G#	2.r
16f#	.
16b#	.
16f#	.
16dd#	.
16f#	.
16b#	.
16f#	.
16dd#	.
16f#	.
16b#	.
16f#	.
=51	=51
16c#	2.r
16cc#	.
16bn	.
16a	.
16g#	.
16cc#	.
16g#	.
16f#	.
16e	.
16g#	.
16e	.
16d#	.
=52	=52
16c#	2.r
16cc#	.
16g#	.
16f#	.
16e	.
16g#	.
16e	.
16d#	.
16c#	.
16e	.
16c#	.
16B	.
=53	=53
16A#	2.r
16f#	.
16cc#	.
16f#	.
16ee	.
16f#	.
16cc#	.
16f#	.
16ee	.
16f#	.
16cc#	.
16f#	.
=54	=54
16A#	2.r
16f#	.
16ee	.
16f#	.
16cc#	.
16f#	.
16ee	.
16f#	.
16cc#	.
16f#	.
16ee	.
16f#	.
=55	=55
16B	2.r
16bb	.
16aa#	.
16gg#	.
16ff#	.
16bb	.
16ff#	.
16ee	.
16dd#	.
16ff#	.
16dd#	.
16cc#	.
=56	=56
16b	2.r
16bb	.
16ff#	.
16ee	.
16dd#	.
16ff#	.
16dd#	.
16cc#	.
16b	.
16dd#	.
16b	.
16a	.
=57	=57
16g#	2.r
16ddn	.
16ee	.
16dd	.
16gg#	.
16dd	.
16bb	.
16dd	.
16gg#	.
16dd	.
16ee	.
16dd	.
=58	=58
16g#	2.r
16ddn	.
16ee	.
16dd	.
16g#	.
16dd	.
16f#	.
16dd	.
16g#	.
16dd	.
16e	.
16dd	.
=59	=59
16cc#	2.r
16ee	.
16aa	.
16gg#	.
16aa	.
16ee	.
16ddn	.
16ee	.
16cc#	.
16ee	.
16b	.
16ee	.
=60	=60
16a	2.r
16aa	.
16gg#	.
16ff#	.
16ee	.
16a	.
16ff#	.
16a	.
16ee	.
16a	.
16ddn	.
16a	.
=61	=61
16cc#	2.r
16ee	.
16b	.
16ee	.
16cc#	.
16ee	.
16ddn	.
16ee	.
16cc#	.
16ee	.
16b	.
16ee	.
=62	=62
16a	2.r
16aa	.
16gg#	.
16ff#	.
16ee	.
16a	.
16ff#	.
16a	.
16ee	.
16a	.
16ddn	.
16a	.
=63	=63
16cc#	4r
16a	.
16a	.
16r	16a
16g#	16r
16r	16a
16a	16r
16r	16a
16b	16r
16r	16a
16g#	16r
16r	16a
=64	=64
16a	16r
16r	16a
16cc#	16r
16r	16a
16b	16r
16r	16a
16cc#	16r
16r	16a
16ddn	16r
16r	16a
16b	16r
16r	16a
=65	=65
16cc#	16r
16r	16a
16a	16r
16r	16a
16g#	16r
16r	16a
16a	16r
16r	16a
16b	16r
16r	16a
16g#	16r
16r	16a
=66	=66
16a	16r
16r	16a
16cc#	16r
16r	16a
16b	16r
16r	16a
16cc#	16r
16r	16a
16ddn	16r
16r	16a
16b	16r
16r	16a
=67	=67
16cc#	16r
16r	16a
16cc#	16r
16a	16r
16cc#	16r
16r	16a
16cc#	16r
16a	16r
16cc#	16r
16r	16a
16cc#	16r
16a	16r
=68	=68
16cc#	16r
16r	16a
16cc#	16r
16g#	16r
16cc#	16r
16r	16a
16cc#	16r
16g#	16r
16cc#	16r
16r	16a
16cc#	16r
16g#	16r
=69	=69
16cc#	16r
16r	16a
16cc#	16r
16gn	16r
16cc#	16r
16r	16a
16cc#	16r
16g	16r
16cc#	16r
16r	16a
16cc#	16r
16g	16r
=70	=70
16ddn	16r
16r	16a
16dd	16r
16f#	16r
16dd	16r
16r	16a
16dd	16r
16f#	16r
16dd	16r
16r	16a
16dd	16r
16f#	16r
=71	=71
16ddn	16r
16r	16a
16dd	16r
16e	16r
16dd	16r
16r	16a
16dd	16r
16e	16r
16dd	16r
16r	16a
16dd	16r
16e	16r
=72	=72
16cc#	16r
16r	16a
16cc#	16r
16e	16r
16cc#	16r
16r	16a
16cc#	16r
16e	16r
16cc#	16r
16r	16a
16cc#	16r
16e	16r
=73	=73
16cc#	16r
16r	16a
16cc#	16r
16dn	16r
16cc#	16r
16r	16a
16cc#	16r
16d	16r
16cc#	16r
16r	16a
16cc#	16r
16d	16r
=74	=74
16b	16r
16r	16a
16b	16r
16dn	16r
16b	16r
16r	16a
16b	16r
16d	16r
16b	16r
16r	16a
16b	16r
16d	16r
=75	=75
16b	16r
16r	16a
16b	16r
16c#	16r
16b	16r
16r	16a
16b	16r
16c#	16r
16b	16r
16r	16a
16b	16r
16c#	16r
=76	=76
16a	16r
16r	16a
16a	16r
16c#	16r
16a	16r
16r	16a
16a	16r
16c#	16r
16a	16r
16r	16a
16a	16r
16c#	16r
=77	=77
16a	16r
16r	16a
16a	16r
16B	16r
16a	16r
16r	16a
16a	16r
16B	16r
16a	16r
16r	16a
16a	16r
16B	16r
=78	=78
16g#	16r
16r	16a
16g#	16r
16B	16r
16g#	16r
16r	16a
16g#	16r
16B	16r
16g#	16r
16r	16a
16g#	16r
16B	16r
=79	=79
16A	2.r
16B	.
16A	.
16B	.
16c#	.
16e	.
16A	.
16B	.
16c#	.
16e	.
16A	.
16B	.
=80	=80
16c#	2.r
16dn	.
16c#	.
16d	.
16e	.
16a	.
16c#	.
16d	.
16e	.
16a	.
16c#	.
16d	.
=81	=81
16e	2.r
16f#	.
16e	.
16f#	.
16gn	.
16cc#	.
16e	.
16f#	.
16g	.
16cc#	.
16e	.
16f#	.
=82	=82
16gn	2.r
16ee	.
16cc#	.
16ddn	.
16ee	.
16cc#	.
16a#	.
16b	.
16cc#	.
16a#	.
16f#	.
16e	.
=83	=83
16dn	2.r
16c#	.
16B	.
16c#	.
16d	.
16f#	.
16B	.
16c#	.
16d	.
16f#	.
16B	.
16c#	.
=84	=84
16dn	2.r
16e	.
16d	.
16e	.
16f#	.
16b	.
16d	.
16e	.
16f#	.
16b	.
16d	.
16e	.
=85	=85
16f#	2.r
16g#	.
16f#	.
16g#	.
16a	.
16dd#	.
16f#	.
16g#	.
16a	.
16dd#	.
16f#	.
16g#	.
=86	=86
16a	2.r
16ff#	.
16dd#	.
16ee	.
16ff#	.
16dd#	.
16b#	.
16cc#	.
16dd#	.
16b#	.
16g#	.
16f#	.
=87	=87
16e#	2.r
16bb	.
16gg#	.
16aa	.
16bb	.
16gg#	.
16ee#	.
16ff#	.
16gg#	.
16ee#	.
16cc#	.
16bn	.
=88	=88
16a	2.r
16ccc#	.
16aa	.
16bb	.
16ccc#	.
16aa	.
16ff#	.
16gg#	.
16aa	.
16ff#	.
16ddn	.
16cc#	.
=89	=89
16b	2.r
16dddn	.
16bb	.
16ccc#	.
16ddd	.
16bb	.
16gg#	.
16aa	.
16bb	.
16gg#	.
16ee#	.
16gg#	.
=90	=90
16cc#	2.r
16dd#	.
16cc#	.
16dd#	.
16ee#	.
16gg#	.
16cc#	.
16dd#	.
16ee#	.
16gg#	.
16cc#	.
16dd#	.
=91	=91
16ee#	2.r
16ff#	.
16ee#	.
16ff#	.
16gg#	.
16bb	.
16ee#	.
16ff#	.
16gg#	.
16bb	.
16ee#	.
16ff#	.
=92	=92
16gg#	2.r
16aa	.
16gg#	.
16aa	.
16bb	.
16dddn	.
16gg#	.
16aa	.
16bb	.
16ddd	.
16gg#	.
16aa	.
=93	=93
16bb	2.r
16dddn	.
16bb	.
16gg#	.
16ee#	.
16bb	.
16gg#	.
16ee#	.
16cc#	.
16bb	.
16aa	.
16gg#	.
=94	=94
16ff#	2.r
16gg#	.
16aa	.
16ff#	.
16b	.
16aa	.
16gg#	.
16ff#	.
16cc#	.
16gg#	.
16ff#	.
16ee#	.
=95	=95
16ddn	2.r
16een	.
16ff#	.
16dd	.
16g#	.
16ff	.
16ee	.
16dd	.
16a#	.
16ee	.
16dd	.
16cc#	.
=96	=96
16b	2.r
16cc#	.
16ddn	.
16b	.
16e#	.
16dd	.
16cc#	.
16b	.
16f#	.
16cc#	.
16b	.
16an	.
=97	=97
16g#	2.r
16a	.
16b	.
16a	.
16g#	.
16b	.
16a	.
16b	.
16g#	.
16b	.
16f#	.
16b	.
=98	=98
16e#	2.r
16f#	.
16g#	.
16a	.
16b	.
16e	.
16ddn	.
16e	.
16cc#	.
16e	.
16b	.
16e	.
=99	=99
16f#	2.r
16a	.
16f#	.
16c#	.
16A	.
16c#	.
16f#	.
16c#	.
16a	.
16c#	.
16f#	.
16c#	.
=100	=100
16e#	2.r
16g#	.
16e#	.
16c#	.
16e#	.
16g#	.
16cc#	.
16g#	.
16ee#	.
16cc#	.
16gg#	.
16b	.
=101	=101
16a	2.r
16cc#	.
16a	.
16f#	.
16a	.
16cc#	.
16ff#	.
16cc#	.
16aa	.
16ff#	.
16ccc#	.
16ff#	.
=102	=102
16ee#	2.r
16gg#	.
16ee#	.
16cc#	.
{16ccc#	.
16bb#}	.
{16ccc#	.
16bb#}	.
16ccc#	.
16gg#	.
16aa	.
16ff#	.
=103	=103
16ee#	2.r
16gg#	.
16ee#	.
16cc#	.
{16bbn	.
16aa#}	.
{16bb	.
16aa#}	.
16bb	.
16gg#	.
16aan	.
16ff#	.
=104	=104
16ee#	2.r
16gg#	.
16ee#	.
16cc#	.
{16ddn	.
16cc#}	.
{16dd	.
16cc#}	.
16dd	.
16g#	.
16a	.
16f#	.
=105	=105
{16e#	2.r
16g#	.
16cc#}	.
16bb	.
{16bb	.
16gg#}	.
{16aa	.
16ff#}	.
16ee#	.
16gg#	.
16cc#	.
16b	.
=106	=106
{16a	2.r
16cc#	.
16ff#}	.
16ccc#	.
{16ccc#	.
16aa}	.
{16bb	.
16gg#}	.
16ff#	.
16aa	.
16ddn	.
16cc#	.
=107	=107
16b	2.r
16ddn	.
16gn	.
16f#	.
16e#	.
16g#	.
16c#	.
16B	.
16A	.
16c#	.
16f#	.
16g#	.
=108	=108
16a	2.r
16f#	.
16b	.
16f#	.
16cc#	.
16f#	.
16ddn	.
16f#	.
16c#	.
16f#	.
16g#	.
16e#	.
=109	=109
{16f#	2.r
16a}	.
{16g#	.
16a}	.
{16a	.
16a}	.
{16g#	.
16a}	.
{16f#	.
16a}	.
{16en	.
16a}	.
=110	=110
{16d#	2.r
16a}	.
{16e	.
16a}	.
{16f#	.
16a}	.
{16g#	.
16a}	.
{16a	.
16a}	.
{16f#	.
16a}	.
=111	=111
16g#	2.r
16a	.
16g#	.
16f#	.
{16e	.
16ee}	.
{16dd#	.
16ee}	.
{16cc#	.
16ee}	.
{16b	.
16ee}	.
=112	=112
{16a#	2.r
16ee}	.
{16b	.
16ee}	.
{16cc#	.
16ee}	.
{16dd#	.
16ee}	.
{16ee	.
16ee}	.
{16cc#	.
16ee}	.
=113	=113
16dd#	2.r
16ee	.
16dd#	.
16cc#	.
16b	.
16cc#	.
16dd#	.
16ee	.
16ff#	.
16gg#	.
16aa	.
16ff#	.
=114	=114
16bb	2.r
16b	.
16a	.
16b	.
{16g#	.
16b}	.
{16f#	.
16b}	.
{16e	.
16b}	.
{16dn	.
16b}	.
=115	=115
16c#	2.r
16e	.
16f#	.
16g#	.
16a	.
16b	.
16cc#	.
16ddn	.
16ee	.
16ff#	.
16gg#	.
16ee	.
=116	=116
16aa	2.r
16a	.
16g#	.
16a	.
{16f#	.
16a}	.
{16e	.
16a}	.
{16d#	.
16a}	.
{16c#	.
16a}	.
=117	=117
16B	2.r
16d#	.
16e	.
16f#	.
16g#	.
16a	.
16b	.
16cc#	.
16dd#	.
16ee	.
16ff#	.
16dd#	.
=118	=118
16gg#	2.r
16e	.
16dn	.
16e	.
{16c#	.
16e}	.
{16B	.
16e}	.
{16A	.
16e}	.
{16G#	.
16e}	.
=119	=119
{16A	2.r
16e	.
16cc#}	.
16b	.
16cc#	.
16ee	.
16aa	.
16gg#	.
16aa	.
16ff#	.
16cc#	.
16ee	.
=120	=120
{16B	2.r
16f#	.
16dd#}	.
16cc#	.
16dd#	.
16ff#	.
16aa	.
16gg#	.
16aa	.
16ff#	.
16dd#	.
16ff#	.
=121	=121
{16B	2.r
16g#	.
16b}	.
16a	.
16b	.
16ee	.
16gg#	.
16ff#	.
16gg#	.
16ee	.
16b	.
16ee	.
=122	=122
{16B	2.r
16a#	.
16cc#}	.
16b	.
16cc#	.
16ee	.
16aa#	.
16gg#	.
16aa#	.
16ee	.
16cc#	.
16ee	.
=123	=123
16dd#	2.r
16bb	.
16aa#	.
16gg#	.
16ff#	.
16bb	.
16ff#	.
16ee	.
16dd#	.
16ff#	.
16dd#	.
16cc#	.
=124	=124
16b	2.r
16bb	.
16aan	.
16gg#	.
16ff#	.
16aa	.
16ff#	.
16ee	.
16dd#	.
16ff#	.
16dd#	.
16cc#	.
=125	=125
16b	2.r
16aa	.
16gg#	.
16ff#	.
16ee	.
16gg#	.
16ee	.
16dd#	.
16cc#	.
16ee	.
16cc#	.
16b	.
=126	=126
16a	2.r
16gg#	.
16ff#	.
16ee	.
16dd#	.
16ff#	.
16dd#	.
16cc#	.
16b	.
16dd#	.
16b	.
16a	.
=127	=127
16g#	2.r
16ee	.
16cc#	.
16b	.
16a	.
16cc#	.
16a	.
16g#	.
16f#	.
16a	.
16f#	.
16e	.
=128	=128
16d#	2.r
16f#	.
16a	.
16cc#	.
16b	.
16dd#	.
16ff#	.
16aa	.
16aa	.
16gg#	.
16aa	.
16ff#	.
=129	=129
16gg#	2.r
16ee	.
16gg#	.
16bb	.
16eee	.
16bb	.
16gg#	.
16ee	.
{16b	.
16ff#	.
16eee}	.
16ddd#	.
=130	=130
16eee	2.r
16bb	.
16gg#	.
16ee	.
{16ddn	.
16ee}	.
{16cc#	.
16ee}	.
{16dd	.
16ee}	.
{16b	.
16ee}	.
=131	=131
16cc#	2.r
16ee	.
16aa	.
16ee	.
{16cc#	.
16ee}	.
{16b	.
16ee}	.
{16cc#	.
16ee}	.
{16a	.
16ee}	.
=132	=132
16b	2.r
16ee	.
16gg#	.
16ee	.
{16b	.
16ee}	.
{16a	.
16ee}	.
{16b	.
16ee}	.
{16g#	.
16ee}	.
=133	=133
16a	2.r
16ee	.
16ff#	.
16ee	.
{16dd#	.
16ee}	.
{16ee	.
16ee}	.
{16ff#	.
16ee}	.
{16gg#	.
16ee}	.
=134	=134
4.dd# 4aa	4.B 4.f#
8b	8r
4gg#	4e 4b
=135	=135
16A	4r
{16aa	.
16gg#	.
32aa	.
32ff#}	.
4.ff#	2b
8ee	.
=136	=136
16ee	2.r
16eee	.
16ddd#	.
16ccc#	.
16bb	.
16eee	.
16aa	.
16eee	.
16gg#	.
16eee	.
16ff#	.
16eee	.
=137	=137
16ee	2.r
16ee	.
16dd#	.
16cc#	.
16b	.
16ee	.
16a	.
16ee	.
16g#	.
16ee	.
16f#	.
16ee	.
=138	=138
{16e	2.r
16g#	.
16b}	.
16dd#	.
{16ee	.
16gg#	.
16bb}	.
16ddd#	.
8eee	.
8r	.
==	==
*-	*-
